assets/icons/qvision/volunteer_activism.svg

<svg xmlns="http://www.w3.org/2000/svg" enable-background="new 0 0 24 24" height="24" viewBox="0 0 24 24" width="24"><g><rect fill="none" height="24" width="24"/></g><g><g><rect height="11" width="4" x="1" y="11"/><path d="M16,3.25C16.65,2.49,17.66,2,18.7,2C20.55,2,22,3.45,22,5.3c0,2.27-2.91,4.9-6,7.7c-3.09-2.81-6-5.44-6-7.7 C10,3.45,11.45,2,13.3,2C14.34,2,15.35,2.49,16,3.25z"/><path d="M20,17h-7l-2.09-0.73l0.33-0.94L13,16h2.82c0.65,0,1.18-0.53,1.18-1.18v0c0-0.49-0.31-0.93-0.77-1.11L8.97,11H7v9.02 L14,22l8.01-3v0C22,17.9,21.11,17,20,17z"/></g></g></svg>

<svg width="24" height="24" viewBox="0 0 24 24" fill="none" xmlns="http://www.w3.org/2000/svg">
<g clip-path="url(#clip0_147_5682)">
<path d="M5 11H1V22H5V11Z" fill="#323232"/>
<path d="M16 3.25C16.65 2.49 17.66 2 18.7 2C20.55 2 22 3.45 22 5.3C22 7.57 19.09 10.2 16 13C12.91 10.19 10 7.56 10 5.3C10 3.45 11.45 2 13.3 2C14.34 2 15.35 2.49 16 3.25Z" fill="#323232"/>
<path d="M20 17H13L10.91 16.27L11.24 15.33L13 16H15.82C16.47 16 17 15.47 17 14.82C17 14.33 16.69 13.89 16.23 13.71L8.97 11H7V20.02L14 22L22.01 19C22 17.9 21.11 17 20 17Z" fill="#323232"/>
</g>
<defs>
<clipPath id="clip0_147_5682">
<rect width="24" height="24" fill="white"/>
</clipPath>
</defs>
</svg>
